icons/htmx-logo.svg

<svg width="256" height="256" viewBox="0 0 256 256" fill="none" xmlns="http://www.w3.org/2000/svg">
<g clip-path="url(#clip0_33_913)">
<path d="M196 0H60C26.8629 0 0 26.8629 0 60V196C0 229.137 26.8629 256 60 256H196C229.137 256 256 229.137 256 196V60C256 26.8629 229.137 0 196 0Z" fill="#F4F2ED"/>
<path d="M102.25 180.12L137.58 75.6C137.707 75.2237 137.959 74.9019 138.293 74.6874C138.627 74.473 139.025 74.3787 139.42 74.42L154.07 75.92C154.331 75.9458 154.583 76.0299 154.807 76.1662C155.031 76.3024 155.222 76.4873 155.365 76.7072C155.508 76.927 155.6 77.1763 155.634 77.4364C155.667 77.6965 155.642 77.9609 155.56 78.21L121.06 181.29C120.944 181.639 120.722 181.943 120.424 182.158C120.126 182.374 119.768 182.49 119.4 182.49L103.9 182.43C103.623 182.429 103.35 182.362 103.104 182.234C102.857 182.107 102.645 181.923 102.484 181.697C102.323 181.472 102.218 181.211 102.177 180.937C102.136 180.663 102.161 180.383 102.25 180.12Z" fill="#3D72D7"/>
<path d="M58.7399 131.41C57.5666 131.87 57.5732 132.313 58.7599 132.74C70.8732 137.12 82.5532 141.23 93.7999 145.07C94.0617 145.162 94.2891 145.33 94.4518 145.554C94.6144 145.777 94.7045 146.045 94.7099 146.32C94.8099 151.587 94.6732 156.893 94.2999 162.24C94.2599 162.78 94.1466 163.297 93.9599 163.79C93.7199 164.41 93.2932 164.593 92.6799 164.34L35.5099 140.61C35.3813 140.555 35.2729 140.461 35.1995 140.343C35.1261 140.225 35.0913 140.088 35.0999 139.95L35.8399 124.42C35.8489 124.231 35.9108 124.048 36.0187 123.892C36.1266 123.737 36.276 123.615 36.4499 123.54L92.3499 99.58C92.4897 99.5193 92.6409 99.4895 92.7936 99.4925C92.9463 99.4955 93.097 99.5312 93.2359 99.5974C93.3747 99.6635 93.4985 99.7585 93.5992 99.8761C93.6998 99.9938 93.7751 100.131 93.8199 100.28C94.1199 101.3 94.3066 102.3 94.3799 103.28C94.7466 108.28 94.8466 113.263 94.6799 118.23C94.6734 118.375 94.6245 118.515 94.5391 118.632C94.4538 118.749 94.3358 118.839 94.1999 118.89C83.2999 122.917 72.0532 126.997 60.4599 131.13C60.1732 131.23 59.8832 131.287 59.5899 131.3C59.1632 131.32 58.8799 131.357 58.7399 131.41ZM198.44 131.24L162.75 118.78C162.68 118.757 162.62 118.713 162.577 118.654C162.534 118.594 162.51 118.523 162.51 118.45C162.41 113.517 162.43 108.493 162.57 103.38C162.597 102.26 162.783 101.217 163.13 100.25C163.257 99.9166 163.49 99.7966 163.83 99.89C164.963 100.203 166.023 100.563 167.01 100.97C185.123 108.423 203.22 115.913 221.3 123.44C221.687 123.6 221.88 123.89 221.88 124.31L221.91 140.02C221.909 140.21 221.853 140.395 221.748 140.553C221.644 140.712 221.495 140.836 221.32 140.91L164.41 164.41C164.26 164.472 164.097 164.498 163.935 164.486C163.773 164.475 163.616 164.426 163.477 164.343C163.338 164.26 163.221 164.147 163.134 164.011C163.048 163.875 162.995 163.72 162.98 163.56C162.387 157.593 162.237 151.733 162.53 145.98C162.542 145.803 162.605 145.633 162.711 145.493C162.818 145.352 162.964 145.247 163.13 145.19C175.457 141.037 187.233 136.81 198.46 132.51C199.613 132.07 199.607 131.647 198.44 131.24Z" fill="#1F2329"/>
</g>
<defs>
<clipPath id="clip0_33_913">
<rect width="256" height="256" fill="white"/>
</clipPath>
</defs>
</svg>

<svg xmlns="http://www.w3.org/2000/svg" width="256" height="256" viewBox="0 0 256 256"><g fill="none"><g clip-path="url(#skillIconsHtmxDark0)"><path fill="#242938" d="M196 0H60C26.863 0 0 26.863 0 60v136c0 33.137 26.863 60 60 60h136c33.137 0 60-26.863 60-60V60c0-33.137-26.863-60-60-60"/><path fill="#3D72D7" d="M102.25 180.12L137.58 75.6a1.75 1.75 0 0 1 1.84-1.18l14.65 1.5a1.749 1.749 0 0 1 1.49 2.29l-34.5 103.08a1.75 1.75 0 0 1-1.66 1.2l-15.5-.06a1.738 1.738 0 0 1-.796-.196a1.752 1.752 0 0 1-.854-2.114"/><path fill="#F5F5F5" d="M58.74 131.41c-1.173.46-1.167.903.02 1.33c12.113 4.38 23.793 8.49 35.04 12.33a1.358 1.358 0 0 1 .91 1.25a179.54 179.54 0 0 1-.41 15.92a5.502 5.502 0 0 1-.34 1.55c-.24.62-.667.803-1.28.55l-57.17-23.73a.683.683 0 0 1-.41-.66l.74-15.53a1.013 1.013 0 0 1 .61-.88l55.9-23.96a1.061 1.061 0 0 1 .886.017a1.103 1.103 0 0 1 .584.683c.3 1.02.487 2.02.56 3c.367 5 .467 9.983.3 14.95a.738.738 0 0 1-.48.66a3138.544 3138.544 0 0 1-33.74 12.24c-.287.1-.577.157-.87.17c-.427.02-.71.057-.85.11m139.7-.17l-35.69-12.46a.348.348 0 0 1-.24-.33c-.1-4.933-.08-9.957.06-15.07a9.915 9.915 0 0 1 .56-3.13c.127-.333.36-.453.7-.36c1.133.313 2.193.673 3.18 1.08c18.113 7.453 36.21 14.943 54.29 22.47c.387.16.58.45.58.87l.03 15.71a.971.971 0 0 1-.59.89l-56.91 23.5a1.043 1.043 0 0 1-1.276-.399a1.024 1.024 0 0 1-.154-.451c-.593-5.967-.743-11.827-.45-17.58a.888.888 0 0 1 .6-.79c12.327-4.153 24.103-8.38 35.33-12.68c1.153-.44 1.147-.863-.02-1.27"/></g><defs><clipPath id="skillIconsHtmxDark0"><path fill="#fff" d="M0 0h256v256H0z"/></clipPath></defs></g></svg>
